src/images/badges/most-viewed-year-zeta.svg

<svg width="40" height="60" viewBox="0 0 40 60" fill="none" xmlns="http://www.w3.org/2000/svg">
<path d="M30 1C34.9706 1 39 5.02944 39 10V30C39 34.9706 34.9706 39 30 39L19 39V50C19 54.9706 14.9706 59 10 59C5.02947 59 1.00003 54.9706 1.00003 50V30C1.00003 25.0294 5.02947 21 10 21L21 21V10C21 5.02944 25.0295 1 30 1Z" fill="#C56FFF"/>
<path d="M32.7991 7.99536C33.0297 7.99536 33.1834 8.1491 33.1834 8.35409C33.1834 8.45659 33.1578 8.53346 33.1065 8.58471L26.7006 19.3467C26.6237 19.4748 26.4956 19.5773 26.3419 19.5773C26.1113 19.5773 25.9575 19.4235 25.9575 19.2186C25.9575 19.1161 25.9831 19.0392 26.0344 18.9879L32.4403 8.22598C32.5172 8.09786 32.6453 7.99536 32.7991 7.99536Z" fill="black"/>
<path d="M32.0047 24.9327C32.0047 25.0865 32.0816 25.2146 32.2353 25.2915C33.5678 26.0345 34.9258 27.5207 34.9258 30.3649C34.9258 33.2604 33.5934 34.7466 32.2353 35.4897C32.0816 35.5922 32.0047 35.6947 32.0047 35.8484C32.0047 36.0534 32.1328 36.1815 32.3378 36.1815C32.4147 36.1815 32.5172 36.1815 32.6966 36.079C34.1315 35.3616 35.7714 33.5679 35.7714 30.3906C35.7714 27.2132 34.1315 25.4196 32.6966 24.7021C32.5172 24.6252 32.4147 24.5996 32.3378 24.5996C32.1328 24.5996 32.0047 24.7277 32.0047 24.9327Z" fill="black"/>
<path d="M8.3284 35.5153C8.48215 35.5922 8.55902 35.7203 8.55902 35.8741C8.55902 36.0791 8.4309 36.2072 8.22591 36.2072C8.14904 36.2072 8.04654 36.1815 7.86718 36.1047C6.43225 35.3872 4.79233 33.5936 4.79233 30.4162C4.79233 27.2389 6.43225 25.4708 7.86718 24.7277C8.04654 24.6252 8.14904 24.6252 8.22591 24.6252C8.4309 24.6252 8.55902 24.7534 8.55902 24.9584C8.55902 25.1121 8.48215 25.2146 8.3284 25.3171C6.97035 26.0602 5.63791 27.5207 5.63791 30.4162C5.63791 33.2861 6.97035 34.7722 8.3284 35.5153Z" fill="black"/>
<path d="M12.3001 29.5962C12.3001 29.2118 12.582 28.9556 12.9919 28.9556C13.4019 28.9556 13.6838 29.2375 13.6838 29.5962C13.6838 29.9549 13.4019 30.2368 12.9919 30.2368C12.6076 30.2624 12.3001 29.9805 12.3001 29.5962Z" fill="black"/>
<path fill-rule="evenodd" clip-rule="evenodd" d="M9.99396 29.5962C9.99396 27.3669 11.0189 25.6245 12.9919 25.6245C14.965 25.6245 15.9899 27.3669 15.9899 29.5962C15.9899 31.8511 14.965 33.5935 12.9919 33.5935C11.0189 33.5935 9.99396 31.8511 9.99396 29.5962ZM15.17 29.5962C15.17 27.7513 14.3756 26.3676 12.9919 26.3676C11.6083 26.3676 10.8139 27.7513 10.8139 29.5962C10.8139 31.4411 11.6083 32.8248 12.9919 32.8248C14.3756 32.8504 15.17 31.4411 15.17 29.5962Z" fill="black"/>
<path fill-rule="evenodd" clip-rule="evenodd" d="M20.5509 29.3913C18.8085 29.3913 17.5017 30.6212 17.5017 32.3636C17.5017 34.106 18.8085 35.3616 20.5509 35.336C22.2933 35.336 23.6002 34.106 23.6002 32.3636C23.6002 30.6468 22.2677 29.3913 20.5509 29.3913ZM20.5253 30.1087C21.7296 30.1087 22.7546 31.0568 22.7546 32.3636C22.7546 33.696 21.7552 34.6185 20.5253 34.6185C19.321 34.6185 18.296 33.696 18.296 32.3636C18.296 31.0312 19.321 30.1087 20.5253 30.1087Z" fill="black"/>
<path d="M19.4491 26.3164C19.1929 26.3164 18.9879 26.5214 18.9879 26.752C18.9879 26.8801 19.0648 27.0339 19.1929 27.1364L20.8584 28.52L20.8858 28.5365C20.9979 28.6042 21.0709 28.6482 21.1659 28.6482C21.294 28.6482 21.4221 28.5457 21.4221 28.3919C21.4221 28.2638 21.3709 28.1613 21.2684 28.0588L19.8847 26.5214C19.7566 26.4189 19.6029 26.3164 19.4491 26.3164Z" fill="black"/>
<path d="M27.085 29.5962C27.085 29.2118 27.3668 28.9556 27.7768 28.9556C28.1868 28.9556 28.4687 29.2375 28.4687 29.5962C28.4687 29.9549 28.1868 30.2368 27.7768 30.2368C27.3925 30.2624 27.085 29.9805 27.085 29.5962Z" fill="black"/>
<path fill-rule="evenodd" clip-rule="evenodd" d="M24.7788 29.5962C24.7788 27.3669 25.8038 25.6245 27.7768 25.6245C29.7498 25.6245 30.7748 27.3669 30.7748 29.5962C30.7748 31.8511 29.7498 33.5935 27.7768 33.5935C25.8038 33.5935 24.7788 31.8511 24.7788 29.5962ZM29.9548 29.5962C29.9548 27.7513 29.1605 26.3676 27.7768 26.3676C26.3931 26.3676 25.5988 27.7513 25.5988 29.5962C25.5988 31.4411 26.3931 32.8248 27.7768 32.8248C29.1605 32.8504 29.9548 31.4411 29.9548 29.5962Z" fill="black"/>
<path d="M13.6838 53.9899C13.94 53.9899 14.0681 53.8361 14.0681 53.6312C14.0681 53.5543 14.0425 53.4774 13.9912 53.4005L7.58531 42.6386C7.50844 42.5105 7.38032 42.408 7.22658 42.408C6.97034 42.408 6.84222 42.5617 6.84222 42.7667C6.84222 42.8436 6.86785 42.9204 6.9191 42.9973L13.325 53.7593C13.4019 53.8874 13.53 53.9899 13.6838 53.9899Z" fill="black"/>
</svg>

<svg xmlns="http://www.w3.org/2000/svg" width="40" height="60" fill="none"><path fill="#C56FFF" d="M30 1a9 9 0 0 1 9 9v20a9 9 0 0 1-9 9H19v11a9 9 0 1 1-18 0V30a9 9 0 0 1 9-9h11V10a9 9 0 0 1 9-9Z"/><path fill="#000" d="M32.8 7.995c.23 0 .383.154.383.36 0 .102-.025.178-.077.23l-6.405 10.762c-.077.128-.205.23-.36.23-.23 0-.384-.154-.384-.358 0-.103.026-.18.077-.231L32.44 8.226c.077-.128.205-.23.36-.23ZM32.005 24.933c0 .154.077.282.23.358 1.333.744 2.69 2.23 2.69 5.074 0 2.895-1.332 4.382-2.69 5.125-.153.102-.23.205-.23.358 0 .205.128.334.333.334.077 0 .18 0 .359-.103 1.434-.717 3.074-2.511 3.074-5.688 0-3.178-1.64-4.971-3.074-5.689-.18-.077-.282-.102-.36-.102-.204 0-.332.128-.332.333ZM8.328 35.515c.154.077.231.205.231.36 0 .204-.128.332-.333.332-.077 0-.18-.026-.359-.102-1.435-.718-3.075-2.511-3.075-5.689 0-3.177 1.64-4.945 3.075-5.688.18-.103.282-.103.359-.103.205 0 .333.128.333.333 0 .154-.077.257-.23.36-1.359.742-2.691 2.203-2.691 5.098 0 2.87 1.332 4.356 2.69 5.1ZM12.3 29.596c0-.384.282-.64.692-.64s.692.282.692.64c0 .359-.282.64-.692.64a.633.633 0 0 1-.692-.64Z"/><path fill="#000" fill-rule="evenodd" d="M9.994 29.596c0-2.23 1.025-3.971 2.998-3.971 1.973 0 2.998 1.742 2.998 3.971 0 2.255-1.025 3.997-2.998 3.997-1.973 0-2.998-1.742-2.998-3.997Zm5.176 0c0-1.845-.794-3.228-2.178-3.228s-2.178 1.383-2.178 3.228c0 1.845.794 3.229 2.178 3.229 1.384.025 2.178-1.384 2.178-3.229ZM20.55 29.391c-1.742 0-3.048 1.23-3.048 2.973 0 1.742 1.306 2.998 3.049 2.972 1.742 0 3.05-1.23 3.05-2.972 0-1.717-1.333-2.973-3.05-2.973Zm-.025.718a2.22 2.22 0 0 1 2.23 2.255c0 1.332-1 2.255-2.23 2.255-1.204 0-2.229-.923-2.229-2.255 0-1.333 1.025-2.255 2.23-2.255Z" clip-rule="evenodd"/><path fill="#000" d="M19.45 26.316c-.257 0-.462.205-.462.436 0 .128.077.282.205.384l1.665 1.384.028.017c.112.067.185.111.28.111a.257.257 0 0 0 .256-.256.451.451 0 0 0-.154-.333l-1.383-1.538c-.128-.102-.282-.205-.436-.205ZM27.085 29.596c0-.384.282-.64.692-.64s.692.282.692.64c0 .359-.282.64-.692.64a.633.633 0 0 1-.692-.64Z"/><path fill="#000" fill-rule="evenodd" d="M24.779 29.596c0-2.23 1.025-3.971 2.998-3.971 1.973 0 2.998 1.742 2.998 3.971 0 2.255-1.025 3.997-2.998 3.997-1.973 0-2.998-1.742-2.998-3.997Zm5.176 0c0-1.845-.794-3.228-2.178-3.228s-2.178 1.383-2.178 3.228c0 1.845.794 3.229 2.178 3.229 1.383.025 2.178-1.384 2.178-3.229Z" clip-rule="evenodd"/><path fill="#000" d="M13.684 53.99c.256 0 .384-.154.384-.359a.413.413 0 0 0-.077-.23L7.585 42.639c-.077-.129-.205-.231-.358-.231-.257 0-.385.154-.385.359 0 .077.026.153.077.23l6.406 10.762c.077.128.205.23.359.23Z"/></svg>
